src/images/svg/markets/stock-new.svg

<svg width="48" height="48" viewBox="0 0 48 48" fill="none" xmlns="http://www.w3.org/2000/svg">
<path fill-rule="evenodd" clip-rule="evenodd" d="M39 0C43.9706 0 48 4.0294 48 9V39C48 43.9706 43.9706 48 39 48H9C4.0294 48 0 43.9706 0 39V9C0 4.0294 4.0294 0 9 0H39Z" fill="#33658A"/>
<path fill-rule="evenodd" clip-rule="evenodd" d="M36.5 14C36.2083 14 35.9167 13.9167 35.6667 13.8333L30.3333 20.5C30.5417 20.875 30.6667 21.2917 30.6667 21.75C30.6667 23.125 29.5417 24.25 28.1667 24.25C26.7917 24.25 25.6667 23.125 25.6667 21.75C25.6667 21.4583 25.7083 21.1667 25.7917 20.9167L21.1667 16.9167C20.7917 17.125 20.3333 17.2917 19.8333 17.2917C19.4583 17.2917 19.125 17.2083 18.7917 17.0833L13.7083 23.0833C13.875 23.4167 14 23.8333 14 24.25C14 25.625 12.875 26.75 11.5 26.75C10.125 26.75 9 25.625 9 24.25C9 22.875 10.125 21.75 11.5 21.75C11.9167 21.75 12.3333 21.8333 12.6667 22.0417L17.7083 16.0833C17.4583 15.7083 17.3333 15.2917 17.3333 14.7917C17.3333 13.4167 18.4583 12.2917 19.8333 12.2917C21.2083 12.2917 22.3333 13.4167 22.3333 14.7917C22.3333 15.1667 22.25 15.5 22.125 15.7917L26.6667 19.75C27.0833 19.4167 27.625 19.25 28.1667 19.25C28.5417 19.25 28.9167 19.3333 29.25 19.5L34.5 12.9583C34.1667 12.5417 34 12.0417 34 11.5C34 10.125 35.125 9 36.5 9C37.875 9 39 10.125 39 11.5C39 12.875 37.875 14 36.5 14ZM36.4998 16.9585C35.1248 16.9585 33.9998 18.0835 33.9998 19.4585V36.5002C33.9998 37.8752 35.1248 39.0002 36.4998 39.0002C37.8748 39.0002 38.9998 37.8752 38.9998 36.5002V19.4585C38.9998 18.0418 37.8748 16.9585 36.4998 16.9585ZM19.8335 20.8334C18.4585 20.8334 17.3335 21.9584 17.3335 23.3334V36.5C17.3335 37.875 18.4585 39 19.8335 39C21.2085 39 22.3335 37.875 22.3335 36.5V23.3334C22.3335 21.9584 21.2085 20.8334 19.8335 20.8334ZM11.5 28.4586C10.125 28.4586 9 29.5836 9 30.9586V36.5003C9 37.8753 10.125 39.0003 11.5 39.0003C12.875 39.0003 14 37.8753 14 36.5003V30.9586C14 29.5836 12.875 28.4586 11.5 28.4586ZM25.667 28.4167C25.667 27.0417 26.792 25.9167 28.167 25.9167C29.542 25.9167 30.667 27.0001 30.667 28.4167V36.5001C30.667 37.8751 29.542 39.0001 28.167 39.0001C26.792 39.0001 25.667 37.8751 25.667 36.5001V28.4167Z" fill="white"/>
</svg>

<svg width="48" height="48" fill="none" xmlns="http://www.w3.org/2000/svg"><path fill-rule="evenodd" clip-rule="evenodd" d="M39 0a9 9 0 0 1 9 9v30a9 9 0 0 1-9 9H9a9 9 0 0 1-9-9V9a9 9 0 0 1 9-9h30Z" fill="#33658A"/><path fill-rule="evenodd" clip-rule="evenodd" d="M36.5 14c-.292 0-.583-.083-.833-.167L30.333 20.5c.209.375.334.792.334 1.25 0 1.375-1.125 2.5-2.5 2.5a2.507 2.507 0 0 1-2.5-2.5c0-.292.041-.583.125-.833l-4.625-4c-.375.208-.834.375-1.334.375a2.9 2.9 0 0 1-1.041-.209l-5.084 6c.167.334.292.75.292 1.167 0 1.375-1.125 2.5-2.5 2.5a2.507 2.507 0 0 1-2.5-2.5c0-1.375 1.125-2.5 2.5-2.5.417 0 .833.083 1.167.292l5.041-5.959a2.243 2.243 0 0 1-.375-1.291c0-1.375 1.125-2.5 2.5-2.5s2.5 1.125 2.5 2.5c0 .375-.083.708-.208 1l4.542 3.958c.416-.333.958-.5 1.5-.5.375 0 .75.083 1.083.25l5.25-6.542A2.293 2.293 0 0 1 34 11.5c0-1.375 1.125-2.5 2.5-2.5s2.5 1.125 2.5 2.5-1.125 2.5-2.5 2.5Zm0 2.959a2.507 2.507 0 0 0-2.5 2.5V36.5c0 1.375 1.125 2.5 2.5 2.5s2.5-1.125 2.5-2.5V19.46a2.48 2.48 0 0 0-2.5-2.5Zm-16.666 3.874a2.507 2.507 0 0 0-2.5 2.5V36.5c0 1.375 1.125 2.5 2.5 2.5s2.5-1.125 2.5-2.5V23.333c0-1.375-1.125-2.5-2.5-2.5ZM11.5 28.46a2.507 2.507 0 0 0-2.5 2.5V36.5c0 1.375 1.125 2.5 2.5 2.5s2.5-1.125 2.5-2.5V30.96c0-1.375-1.125-2.5-2.5-2.5Zm14.167-.042c0-1.375 1.125-2.5 2.5-2.5a2.48 2.48 0 0 1 2.5 2.5V36.5c0 1.375-1.125 2.5-2.5 2.5a2.507 2.507 0 0 1-2.5-2.5v-8.083Z" fill="#fff"/></svg>
